X:0235
T: Ballypatrick       (air)    repaired     0235
C:after Sg't   J. O'Neill
C:with spirit
B:O'Neill's Music Of Ireland (The 1850)   Lyon & Healy, Chicago   1903 ed.
N:With a deal of temerity and apprehension, I have corrected the second part.
Z:FROM O'NEILL'S TO NOTEWORTHY, FROM NOTEWORTHY TO ABC, MIDI AND .TXT BY VINCE BRENNAN 6-21-03 (HTTP://WWW.SOSYOURMOM.COM)
Q:1/4=130
I:abc2nwc
M:3/4
L:1/8
K:G
"_VB"D2|(D2G2).G2|G3(FGA)|.B2.B2.B2|B3z(BA)|
.G2.G2.G2|G3(cBG)|(A2F2).D2|D3zBc|
.d2.d2.d2|g2d2B2|B2A2B2|c3(def)|
d2B2G2|G3ABG|F2D2D2|D4||
DE|G4GA|B2B2(cB)|A2G2AG|FE D2z(B/2c/2)|
(d2-~d e)(=fe)|dc B2cA|({AB}A2G2)G2|G3(EDC)|
(.B,2.C2.D2)|G4(GA)|B2B2cB|A2G2Bc|
(d2-~d e)(=fe)|dcTRB2cA|{AB}A2G2G2|G4|]
